X:1
T:The Quiet Center
C:Composer AI
M:4/4
L:1/8
K:Dmin
V:1 clef=treble name="Piano RH"
V:2 clef=bass name="Piano LH"
V:3 clef=bass name="Cello"
%%score { 1 | 2 3 }

V:1
z4 D2 E2 F2 z2 | G2 F2 E4 D2 C2 | A2 z2 A2 c2 B2 z2 | A2 G2 A2 F2 D2 z2 |
E2 F2 G2 A2 (B2 A2) | G2 E2 F2 z2 D2 z2 | (C2 D2 E2) F2 z2 E2 F2 |
(G2 F2 D2) (A2 G2) z2 F2 | E2 z2 (F2 G2 A2) z2 | A2 c2 B2 G2 F2 z2 |
(B2 e2) (d2 c2) (A2 G2) | F2 z2 E2 F2 G2 z2 | (A4 G2 E2) F2 z2 |
E2 (F2 G2) (A2 z2 F2) | (D2 E2 F2 A2) z2 ||

V:2
[D2,D2] [A,2A,2] [D2D2] z4 | [C2E2] [B,2D2] [A,2C2] [D2A2] | [G,2B,2] z2 [C2E2] [F2A2] | [D2F2] [A,2C2][D2D2] z4 |
[G2B2] [F2A2] [E2G2] [D2F2] | [A,2C2] [D2F2] z2 [C2E2] [F2A2] | [B,2D2] [C2E2] [G,2B,2] [F2A2] | [D2F2] z2 [A,2C2][D2D2] |
[G2B2] [F2A2] [D2F2] [E2G2] | [C2E2] z2 [B,2D2] [F2A2] | [G,2B,2] [C2E2] [A,2C2] [D2F2] | [E2G2] z2 [F2A2] [D2F2] |
[G,2B,2] [A,2C2] [D2F2] z4 |

V:3
d2 z2 d2 z2 d2 z2 | a2 g2 f4 e2 d2 | A,2 A2 G2 E2 F2 z2 | D2 F2 G2 D2 C2 z2 |
E2 A2 F2 D2 a2 f2 | e2 g2 f2 a2 d2 e2 | D2 z2 C2 A2 F2 z2 | B2 A2 D2 F2 z2 D2 |
E2 A2 D2 F2 G2 z2 | F2 z2 E2 D2 G2 z2 | F2 D2 C2 A,2 G2 z2 | D2 d2 a2 f2 d2 z2 | D4 z4 | [D,2D2] z2 a2 a2 d2 ||